X: 42
% Old value - X: 1
T: The Musical Priest
R: reel
M: 4/4
L: 1/8
K: Bmin
|:BA|FBBA B2Bd|cBAf ecBA|FBBA B2Bd|cBAc B2:|
|:Bc|d2dc dfed|(3cBA eA fAeA|dcBc defb|afec B2:|
|Bc|dB (3BBB bafb|afec ABce|dB (3BBB bafb|afec B2Bc|
dB (3BBB bafb|afec ABce|dcBc defb|afec B2|

